icon/planeIcon.svg

<svg width="24" height="24" xmlns="http://www.w3.org/2000/svg" fill-rule="evenodd" clip-rule="evenodd"><path d="M3.691 10h6.309l-3-7h2l7 7h5c1.322-.007 3 1.002 3 2s-1.69 1.993-3 2h-5l-7 7h-2l3-7h-6.309l-2.292 2h-1.399l1.491-4-1.491-4h1.399l2.292 2"/></svg>

<?xml version="1.0" encoding="UTF-8" standalone="no"?>
<!DOCTYPE svg PUBLIC "-//W3C//DTD SVG 1.1//EN" "http://www.w3.org/Graphics/SVG/1.1/DTD/svg11.dtd">
<svg width="100%" height="100%" viewBox="0 0 24 24" version="1.1" xmlns="http://www.w3.org/2000/svg" xmlns:xlink="http://www.w3.org/1999/xlink" xml:space="preserve" xmlns:serif="http://www.serif.com/" style="fill-rule:evenodd;clip-rule:evenodd;stroke-linejoin:round;stroke-miterlimit:2;">
    <path d="M3.691,10L10,10L7,3L9,3L16,10L21,10C22.322,9.993 24,11.002 24,12C24,12.998 22.31,13.993 21,14L16,14L9,21L7,21L10,14L3.691,14L1.399,16L0,16L1.491,12L0,8L1.399,8L3.691,10" style="fill:white;"/>
</svg>
